Icons/com_bittorrent_sync.svg

<svg viewBox="0 0 48 48" xmlns:xlink="http://www.w3.org/1999/xlink">
 <defs>
  <linearGradient id="0">
   <stop stop-opacity="0"/>
   <stop offset="1"/>
  </linearGradient>
  <linearGradient xlink:href="#0" id="1" gradientUnits="userSpaceOnUse" gradientTransform="translate(4e-7,-48)" y1="47" x2="0" y2="1"/>
  <clipPath id="2">
   <g transform="translate(0,-1004.3622)">
    <rect rx="4" y="1005.36" x="1" height="46" width="46" fill="#1890d0"/>
   </g>
  </clipPath>
  <clipPath id="3">
   <g transform="translate(0,-1004.3622)">
    <rect rx="4" y="1005.36" x="1" height="46" width="46" fill="#1890d0"/>
   </g>
  </clipPath>
 </defs>
 <g>
  <g transform="translate(0,-1004.3622)">
   <path d="m 5,1006.3622 c -2.216,0 -4,1.784 -4,4 l 0,37.25 c 0,2.216 1.784,4 4,4 l 38,0 c 2.216,0 4,-1.784 4,-4 l 0,-37.25 c 0,-2.216 -1.784,-4 -4,-4 l -38,0 z m -4,41.5 0,0.5 c 0,2.216 1.784,4 4,4 l 38,0 c 2.216,0 4,-1.784 4,-4 l 0,-0.5 c 0,2.216 -1.784,4 -4,4 l -38,0 c -2.216,0 -4,-1.784 -4,-4 z" opacity="0.02"/>
   <path d="m 1,1047.6122 0,0.25 c 0,2.216 1.784,4 4,4 l 38,0 c 2.216,0 4,-1.784 4,-4 l 0,-0.25 c 0,2.216 -1.784,4 -4,4 l -38,0 c -2.216,0 -4,-1.784 -4,-4 z" opacity="0.05"/>
   <rect width="46" height="46" x="1" y="1005.61" rx="4" opacity="0.1"/>
  </g>
 </g>
 <g>
  <g transform="translate(0,-1004.3622)">
   <rect rx="4" y="1005.36" x="1" height="46" width="46" fill="#004794"/>
  </g>
 </g>
 <g>
  <rect transform="scale(1,-1)" width="46" height="46" x="1" y="-46.998" rx="4" opacity="0.1" fill="url(#1)"/>
 </g>
 <g>
  <g clip-path="url(#2)">
   <g opacity="0.1">
    <g>
     <path d="M 34.554688 19.613281 C 32.726562 15.589844 28.636719 13 24.027344 13 C 19.308594 13 14.992188 15.832031 13.296875 20.035156 L 16.871094 21.359375 C 18.003906 18.550781 20.878906 16.671875 24.027344 16.671875 C 27.058594 16.671875 29.742188 18.351562 30.984375 20.972656 L 28.378906 21.972656 L 35.046875 25.65625 L 37 18.683594 Z M 34.554688 19.613281 "/>
     <path d="M 24.027344 31.335938 C 21.015625 31.335938 18.277344 29.601562 17.050781 26.992188 L 19.617188 26.042969 L 13.019531 22.4375 L 11 29.230469 L 13.464844 28.320312 C 15.253906 32.332031 19.445312 35 24.027344 35 C 28.757812 35 32.949219 32.28125 34.703125 28.074219 L 31.144531 26.71875 C 29.976562 29.523438 27.179688 31.335938 24.027344 31.335938 Z M 24.027344 31.335938 "/>
    </g>
   </g>
  </g>
 </g>
 <g>
  <g clip-path="url(#3)">
   <g transform="translate(0,-1)">
    <g>
     <path d="M 34.554688 19.613281 C 32.726562 15.589844 28.636719 13 24.027344 13 C 19.308594 13 14.992188 15.832031 13.296875 20.035156 L 16.871094 21.359375 C 18.003906 18.550781 20.878906 16.671875 24.027344 16.671875 C 27.058594 16.671875 29.742188 18.351562 30.984375 20.972656 L 28.378906 21.972656 L 35.046875 25.65625 L 37 18.683594 Z M 34.554688 19.613281 " fill="#f9f9f9"/>
     <path d="M 24.027344 31.335938 C 21.015625 31.335938 18.277344 29.601562 17.050781 26.992188 L 19.617188 26.042969 L 13.019531 22.4375 L 11 29.230469 L 13.464844 28.320312 C 15.253906 32.332031 19.445312 35 24.027344 35 C 28.757812 35 32.949219 32.28125 34.703125 28.074219 L 31.144531 26.71875 C 29.976562 29.523438 27.179688 31.335938 24.027344 31.335938 Z M 24.027344 31.335938 " fill="#f9f9f9"/>
    </g>
   </g>
  </g>
 </g>
 <g>
  <g transform="translate(0,-1004.3622)">
   <path d="m 1,1043.3622 0,4 c 0,2.216 1.784,4 4,4 l 38,0 c 2.216,0 4,-1.784 4,-4 l 0,-4 c 0,2.216 -1.784,4 -4,4 l -38,0 c -2.216,0 -4,-1.784 -4,-4 z" opacity="0.1"/>
  </g>
 </g>
</svg>

<svg viewBox="0 0 48 48"><defs><linearGradient id="linearGradient3764" x1="1" x2="47" gradientUnits="userSpaceOnUse" gradientTransform="translate(-48.000001,0.00221467)"><stop stop-color="#003c80" stop-opacity="1"/><stop offset="1" stop-color="#004794" stop-opacity="1"/></linearGradient><clipPath id="clipPath-029594312"><g transform="translate(0,-1004.3622)"><rect rx="4" y="1005.36" x="1" height="46" width="46" fill="#1890d0"/></g></clipPath><clipPath id="clipPath-055251797"><g transform="translate(0,-1004.3622)"><rect rx="4" y="1005.36" x="1" height="46" width="46" fill="#1890d0"/></g></clipPath></defs><g><path d="m 1 43 l 0 0.25 c 0 2.216 1.784 4 4 4 l 38 0 c 2.216 0 4 -1.784 4 -4 l 0 -0.25 c 0 2.216 -1.784 4 -4 4 l -38 0 c -2.216 0 -4 -1.784 -4 -4 z m 0 0.5 l 0 0.5 c 0 2.216 1.784 4 4 4 l 38 0 c 2.216 0 4 -1.784 4 -4 l 0 -0.5 c 0 2.216 -1.784 4 -4 4 l -38 0 c -2.216 0 -4 -1.784 -4 -4 z" opacity="0.02"/><path d="m 1 43.25 l 0 0.25 c 0 2.216 1.784 4 4 4 l 38 0 c 2.216 0 4 -1.784 4 -4 l 0 -0.25 c 0 2.216 -1.784 4 -4 4 l -38 0 c -2.216 0 -4 -1.784 -4 -4 z" opacity="0.05"/><path d="m 1 43 l 0 0.25 c 0 2.216 1.784 4 4 4 l 38 0 c 2.216 0 4 -1.784 4 -4 l 0 -0.25 c 0 2.216 -1.784 4 -4 4 l -38 0 c -2.216 0 -4 -1.784 -4 -4 z" opacity="0.1"/></g><g><rect width="46" height="46" x="-47" y="1" rx="4" transform="matrix(0,-1,1,0,0,0)" fill="url(#linearGradient3764)" fill-opacity="1"/></g><g><g clip-path="url(#clipPath-029594312)"><g opacity="0.1"><!-- color: #004794 --><g><path d="m 34.555 19.613 c -1.828 -4.02 -5.918 -6.613 -10.527 -6.613 c -4.719 0 -9.04 2.832 -10.73 7.04 l 3.574 1.324 c 1.133 -2.809 4.01 -4.688 7.156 -4.688 c 3.03 0 5.715 1.68 6.957 4.301 l -2.605 1 l 6.668 3.684 l 1.953 -6.973 m -2.445 0.93" fill="#000"/><path d="m 24.03 31.34 c -3.01 0 -5.75 -1.734 -6.977 -4.344 l 2.566 -0.949 l -6.598 -3.605 l -2.02 6.793 l 2.465 -0.91 c 1.789 4.01 5.98 6.68 10.563 6.68 c 4.73 0 8.922 -2.719 10.676 -6.926 l -3.559 -1.355 c -1.168 2.805 -3.965 4.617 -7.117 4.617 m 0 0" fill="#000"/></g></g></g></g><g><g clip-path="url(#clipPath-055251797)"><g transform="translate(0,-1)"><!-- color: #004794 --><g><path d="m 34.555 19.613 c -1.828 -4.02 -5.918 -6.613 -10.527 -6.613 c -4.719 0 -9.04 2.832 -10.73 7.04 l 3.574 1.324 c 1.133 -2.809 4.01 -4.688 7.156 -4.688 c 3.03 0 5.715 1.68 6.957 4.301 l -2.605 1 l 6.668 3.684 l 1.953 -6.973 m -2.445 0.93" fill="#f9f9f9"/><path d="m 24.03 31.34 c -3.01 0 -5.75 -1.734 -6.977 -4.344 l 2.566 -0.949 l -6.598 -3.605 l -2.02 6.793 l 2.465 -0.91 c 1.789 4.01 5.98 6.68 10.563 6.68 c 4.73 0 8.922 -2.719 10.676 -6.926 l -3.559 -1.355 c -1.168 2.805 -3.965 4.617 -7.117 4.617 m 0 0" fill="#f9f9f9"/></g></g></g></g><g><g transform="translate(0,-1004.3622)"><path d="m 1 1043.36 0 4 c 0 2.216 1.784 4 4 4 l 38 0 c 2.216 0 4 -1.784 4 -4 l 0 -4 c 0 2.216 -1.784 4 -4 4 l -38 0 c -2.216 0 -4 -1.784 -4 -4 z" opacity="0.1"/></g></g></svg>
